app/assets/images/citation-icone.svg

<svg fill="none" height="35" viewBox="0 0 48 35" width="48" xmlns="http://www.w3.org/2000/svg"><path d="m47.5681 23.776c0 1.4933-.2987 2.8747-.896 4.144-.5227 1.2693-1.2694 2.3893-2.24 3.36-.9707.896-2.128 1.6427-3.472 2.24-1.2694.5227-2.6134.784-4.032.784-1.4934 0-2.8747-.2613-4.144-.784-1.2694-.5973-2.3894-1.344-3.36-2.24-.9707-.9707-1.7547-2.0907-2.352-3.36-.5227-1.2693-.784-2.6507-.784-4.144v-13.664c0-2.83735.9333-5.22668 2.8-7.16802 1.9413-1.94133 4.3306-2.9119976 7.168-2.9119976h7.168v8.7360076h-5.376c-2.016 0-3.024 1.11999-3.024 3.36001v1.344c.2986-.1493.6346-.224 1.008-.224.3733-.0747.7466-.112 1.12-.112 3.136 0 5.6373 1.008 7.504 3.024 1.9413 1.9413 2.912 4.48 2.912 7.616zm-25.312 0c0 1.4933-.2987 2.8747-.896 4.144-.5227 1.2693-1.2694 2.3893-2.24 3.36-.9707.896-2.128 1.6427-3.472 2.24-1.2694.5227-2.6134.784-4.032.784-1.4934 0-2.87469-.2613-4.14403-.784-1.26933-.5973-2.38933-1.344-3.36-2.24-.97066-.9707-1.75466-2.0907-2.352-3.36-.52266-1.2693-.783996-2.6507-.783996-4.144v-13.664c0-2.83735.933336-5.22668 2.799996-7.16802 1.94134-1.94133 4.33067-2.9119976 7.16803-2.9119976h7.168v8.7360076h-5.376c-2.016 0-3.02402 1.11999-3.02402 3.36001v1.344c.29862-.1493.63462-.224 1.00802-.224.3733-.0747.7466-.112 1.12-.112 3.136 0 5.6373 1.008 7.504 3.024 1.9413 1.9413 2.912 4.48 2.912 7.616z" fill="#5affb4"/></svg>

<svg width="48" height="35" viewBox="0 0 48 35" fill="none" xmlns="http://www.w3.org/2000/svg">
<path d="M47.5681 23.776C47.5681 25.2693 47.2694 26.6507 46.6721 27.92C46.1494 29.1893 45.4027 30.3093 44.4321 31.28C43.4614 32.176 42.3041 32.9227 40.9601 33.52C39.6907 34.0427 38.3467 34.304 36.9281 34.304C35.4347 34.304 34.0534 34.0427 32.7841 33.52C31.5147 32.9227 30.3947 32.176 29.4241 31.28C28.4534 30.3093 27.6694 29.1893 27.0721 27.92C26.5494 26.6507 26.2881 25.2693 26.2881 23.776V10.112C26.2881 7.27465 27.2214 4.88532 29.0881 2.94398C31.0294 1.00265 33.4187 0.0319824 36.2561 0.0319824H43.4241V8.76799H38.0481C36.0321 8.76799 35.0241 9.88798 35.0241 12.128V13.472C35.3227 13.3227 35.6587 13.248 36.0321 13.248C36.4054 13.1733 36.7787 13.136 37.1521 13.136C40.2881 13.136 42.7894 14.144 44.6561 16.16C46.5974 18.1013 47.5681 20.64 47.5681 23.776ZM22.2561 23.776C22.2561 25.2693 21.9574 26.6507 21.3601 27.92C20.8374 29.1893 20.0907 30.3093 19.1201 31.28C18.1494 32.176 16.9921 32.9227 15.6481 33.52C14.3787 34.0427 13.0347 34.304 11.6161 34.304C10.1227 34.304 8.74141 34.0427 7.47207 33.52C6.20274 32.9227 5.08274 32.176 4.11207 31.28C3.14141 30.3093 2.35741 29.1893 1.76007 27.92C1.23741 26.6507 0.976074 25.2693 0.976074 23.776V10.112C0.976074 7.27465 1.90941 4.88532 3.77607 2.94398C5.71741 1.00265 8.10674 0.0319824 10.9441 0.0319824H18.1121V8.76799H12.7361C10.7201 8.76799 9.71208 9.88798 9.71208 12.128V13.472C10.0107 13.3227 10.3467 13.248 10.7201 13.248C11.0934 13.1733 11.4667 13.136 11.8401 13.136C14.9761 13.136 17.4774 14.144 19.3441 16.16C21.2854 18.1013 22.2561 20.64 22.2561 23.776Z" fill="#5AFFB4"/>
</svg>
